src/assets/logo.svg

<svg
  width="171"
  height="73"
  viewBox="0 0 171 73"
  fill="none"
  xmlns="http://www.w3.org/2000/svg"
>
<path
    fill-rule="evenodd"
    clip-rule="evenodd"
    d="M67.5683 0.876676H28.5929C27.7778 0.876865 26.9961 1.20134 26.4194 1.77885C25.8426 2.35636 25.5179 3.1397 25.5166 3.95699V17.3577C23.1932 16.6366 20.9439 15.6669 18.8087 14.4591C13.6894 11.5633 9.39858 7.39643 6.34834 2.35856C6.13847 2.01251 5.86267 1.7113 5.5367 1.47212C5.21073 1.23295 4.84097 1.06052 4.44854 0.964632C4.0561 0.868744 3.64867 0.851305 3.24951 0.913301C2.85035 0.975297 2.46728 1.11552 2.12217 1.32596C1.77705 1.5364 1.47665 1.81292 1.23812 2.13977C0.999589 2.46662 0.827603 2.83737 0.731974 3.23087C0.636344 3.62437 0.618953 4.03292 0.680781 4.43316C0.74261 4.8334 0.882451 5.21748 1.09233 5.56352C4.69645 11.5132 9.7676 16.4323 15.8174 19.847C18.8803 21.5758 22.1418 22.8895 25.5166 23.7657V69.7863C25.5175 70.603 25.8415 71.3859 26.4174 71.9634C26.9933 72.5409 27.7742 72.8657 28.5886 72.8666L45.3212 72.8724C45.7249 72.8724 46.1248 72.7926 46.4978 72.6375C46.8708 72.4824 47.2096 72.2551 47.4949 71.9687C47.7803 71.6822 48.0064 71.3421 48.1606 70.9679C48.3147 70.5937 48.3937 70.1926 48.3932 69.7878V30.3009C48.3932 29.483 48.0692 28.6986 47.4924 28.1203C46.9156 27.5419 46.1333 27.217 45.3176 27.217C44.5019 27.217 43.7196 27.5419 43.1428 28.1203C42.566 28.6986 42.242 29.483 42.242 30.3009V66.706H31.6607V24.8622C32.9779 24.9932 34.304 25.0596 35.6345 25.0602C42.577 25.0634 49.4033 23.2743 55.4562 19.8651C61.5092 16.4559 66.5848 11.5414 70.1943 5.59505C70.4883 5.11174 70.6438 4.55654 70.6437 3.99042V3.96178C70.6436 3.55743 70.5639 3.15707 70.4091 2.78367C70.2575 2.41785 70.0368 2.08495 69.7591 1.80329C69.7513 1.79526 69.7434 1.78728 69.7355 1.77933C69.1587 1.20092 68.3763 0.875977 67.5605 0.875977L67.5683 0.876676ZM61.5499 7.04447H31.6607V18.6607C32.9584 18.8133 34.2674 18.8918 35.5815 18.8946C41.4592 18.9069 47.2414 17.4037 52.3727 14.5294C55.8536 12.5795 58.9557 10.0431 61.5499 7.04447ZM66.8007 36.874C71.4934 36.874 75.0991 38.306 77.618 41.1699C80.1714 43.9993 81.4481 48.0364 81.4481 53.2811C81.4481 59.009 80.0679 63.4256 77.3075 66.5311C74.5471 69.6365 70.648 71.1892 65.6103 71.1892C60.9521 71.1892 57.3463 69.74 54.7929 66.8416C52.2741 63.9087 51.0146 59.7681 51.0146 54.4198C51.0146 48.7955 52.3776 44.4651 55.1035 41.4287C57.8639 38.3922 61.763 36.874 66.8007 36.874ZM66.1796 42.5156C63.4192 42.5156 61.4179 43.3782 60.1757 45.1035C58.9335 46.8287 58.3125 49.6409 58.3125 53.5399C58.3125 57.9911 58.9163 61.1655 60.124 63.0633C61.3661 64.9611 63.4019 65.91 66.2314 65.91C68.9917 65.91 70.993 65.0473 72.2352 63.3221C73.4774 61.5623 74.0985 58.6984 74.0985 54.7304C74.0985 50.3482 73.4774 47.2255 72.2352 45.3623C71.0275 43.4645 69.009 42.5156 66.1796 42.5156ZM114.143 60.3719L114.402 70.6717H106.845L93.233 48.1054H92.8189L92.7672 59.1815L92.9742 70.6717H86.608L86.9703 60.8377L86.6598 37.3398H94.1646L107.777 59.9061H108.243L108.087 37.6504L114.557 37.2363L114.143 60.3719ZM143.971 65.4442L143.557 64.8748L135.328 65.1854L129.479 65.1336L129.324 60.1131L129.376 56.5419L134.707 56.4901L140.607 56.6454L141.073 51.4179L140.659 50.9003L135.224 51.0556L129.479 50.9521L129.635 42.9297L135.639 42.8779L143.609 43.1367L144.127 37.9092L143.713 37.3398H122.596L122.958 60.7342L122.596 70.6717H143.506L143.971 65.4442ZM170.202 37.9092L169.788 43.1367L163.525 42.8261H161.455L161.196 60.1131L161.506 70.6717H154.467L154.83 60.7342L154.571 42.8261H152.501L146.134 43.1367L145.669 42.5673L146.134 37.3398H169.788L170.202 37.9092Z"
    fill="url(#paint0_linear_198_3398)"
  />
<path
    style="mix-blend-mode:multiply"
    d="M25.5166 39.3273H31.6685V24.8727C29.5932 24.6711 27.5365 24.3095 25.5166 23.791V39.3273Z"
    fill="url(#paint1_linear_198_3398)"
  />
<defs>
<linearGradient
      id="paint0_linear_198_3398"
      x1="13.3911"
      y1="-0.322118"
      x2="182.325"
      y2="16.0965"
      gradientUnits="userSpaceOnUse"
    >
<stop stop-color="#8F63F2" />
<stop offset="0.999" stop-color="#30C7CF" />
</linearGradient>
<linearGradient
      id="paint1_linear_198_3398"
      x1="28.5926"
      y1="39.1098"
      x2="28.5926"
      y2="24.7387"
      gradientUnits="userSpaceOnUse"
    >
<stop stop-color="white" />
<stop offset="0.999" stop-color="#272525" />
</linearGradient>
</defs>
</svg>

<svg xmlns="http://www.w3.org/2000/svg" width="171" height="73" fill="none" xmlns:v="https://vecta.io/nano"><path fill-rule="evenodd" d="M67.568.877H28.593c-.815 0-1.597.325-2.174.902a3.09 3.09 0 0 0-.903 2.178v13.401c-2.323-.721-4.573-1.691-6.708-2.899-5.119-2.896-9.41-7.063-12.46-12.101a3.08 3.08 0 0 0-.812-.886A3.07 3.07 0 0 0 4.449.965a3.07 3.07 0 0 0-2.326.361 3.08 3.08 0 0 0-.884.814 3.09 3.09 0 0 0-.506 1.091 3.09 3.09 0 0 0 .36 2.333c3.604 5.95 8.675 10.869 14.725 14.283a40.37 40.37 0 0 0 9.699 3.919v46.021a3.09 3.09 0 0 0 .901 2.177 3.07 3.07 0 0 0 2.171.903l16.733.006c.404 0 .804-.08 1.177-.235s.712-.382.997-.669a3.08 3.08 0 0 0 .666-1.001 3.09 3.09 0 0 0 .233-1.18V30.301a3.09 3.09 0 0 0-.901-2.181 3.07 3.07 0 0 0-4.35 0 3.09 3.09 0 0 0-.901 2.181v36.405H31.661V24.862c1.317.131 2.643.197 3.974.198a40.35 40.35 0 0 0 19.822-5.195c6.053-3.409 11.129-8.324 14.738-14.27.294-.483.45-1.039.449-1.605v-.029a3.08 3.08 0 0 0-.235-1.178 3.07 3.07 0 0 0-.65-.98l-.024-.024a3.07 3.07 0 0 0-2.175-.903l.008.001zM61.55 7.044H31.661v11.616c1.298.153 2.607.231 3.921.234a34.21 34.21 0 0 0 16.791-4.365c3.481-1.95 6.583-4.486 9.177-7.485zm5.251 29.83c4.693 0 8.298 1.432 10.817 4.296 2.553 2.829 3.83 6.867 3.83 12.111 0 5.728-1.38 10.145-4.141 13.25s-6.66 4.658-11.697 4.658c-4.658 0-8.264-1.449-10.817-4.348-2.519-2.933-3.778-7.074-3.778-12.422 0-5.624 1.363-9.955 4.089-12.991 2.76-3.036 6.66-4.555 11.697-4.555zm-.621 5.642c-2.76 0-4.762.863-6.004 2.588s-1.863 4.537-1.863 8.436c0 4.451.604 7.626 1.812 9.523 1.242 1.898 3.278 2.847 6.107 2.847 2.76 0 4.762-.863 6.004-2.588 1.242-1.76 1.863-4.624 1.863-8.592 0-4.382-.621-7.505-1.863-9.368-1.208-1.898-3.226-2.847-6.056-2.847zm47.963 17.856l.259 10.3h-7.557L93.233 48.105h-.414l-.052 11.076.207 11.49h-6.366l.362-9.834-.31-23.498h7.505l13.612 22.566h.466l-.156-22.256 6.47-.414-.414 23.136zm29.828 5.072l-.414-.569-8.229.311-5.849-.052-.155-5.02.052-3.571 5.331-.052 5.9.155.466-5.227-.414-.518-5.435.155-5.745-.103.156-8.022 6.004-.052 7.97.259.518-5.227-.414-.569h-21.117l.362 23.394-.362 9.938h20.91l.465-5.228zm26.231-27.535l-.414 5.227-6.263-.311h-2.07l-.259 17.287.31 10.559h-7.039l.363-9.937-.259-17.908h-2.07l-6.367.311-.465-.569.465-5.228h23.654l.414.569z" fill="url(#A)"/><path style="mix-blend-mode:multiply" d="M25.517 39.327h6.152V24.873c-2.075-.202-4.132-.563-6.152-1.082v15.536z" fill="url(#B)"/><defs><linearGradient id="A" x1="13.391" y1="-.322" x2="182.325" y2="16.096" gradientUnits="userSpaceOnUse"><stop stop-color="#8f63f2"/><stop offset=".999" stop-color="#30c7cf"/></linearGradient><linearGradient id="B" x1="28.593" y1="39.11" x2="28.593" y2="24.739" gradientUnits="userSpaceOnUse"><stop stop-color="#fff"/><stop offset=".999" stop-color="#272525"/></linearGradient></defs></svg>
